!!!!SEGMENT: pl-wtm--r-2040--003_smietanski-emil-wladyslaw--polonaise-caprise.krn
!!!cenid: 18xx:1984
!!!COM: Śmietański, Emil Władysław
!!!COM-rismid: pe50041781
!!!CDT: 1845-1886
!!!CNT: Polish
!!!OTL: Polonaise-Caprise
!!!PDT: 1873
!!!AGN: Secular
!!!SMS-siglum: PL-Wtm
!!!SMS-shelfmark: R 2040
!!!SMS-shelfwork: 003 W
!!!SMS-variant:
!!!SMS-altvar:
!!!NIFC-rismid: 1001112996
!!!URL-scan: http://repozytorium.nifc.pl/skany/pl-wtm-nut--r2040
!!!ONB-nifc: UWAGA: utwory w zbiorze: 1. Graziella, 2. Szum Wisły, 3. Polonaise-Caprise
!!!key:
**kern	**kern	**dynam
*part1	*part1	*part1
*staff2	*staff1	*
*Iforte	*Iforte	*
*I"Fortepian	*I"Fortepian	*
*I'pf	*I'pf	*
*clefF4	*clefG2	*
*k[f#c#]	*k[f#c#]	*
*D:	*D:	*
*M3/4	*M3/4	*
=1	=1	=1
!	!LO:TX:a:i:t=Tempo di Polacca.	!
8D\L	2.r	p
8AA\J	.	.
!LO:TX:a:i:t=staccato	!	!
16D\LL	.	.
16D\	.	.
16D\	.	.
16D\JJ	.	.
8D\L	.	.
8AA\J	.	.
=2	=2	=2
8D\L	8F#</L	.
8AA\J	8D</J	.
16D\LL	16F#</LL	.
16D\	16F#</	.
16D\	16F#</	.
16D\JJ	16F#</JJ	.
8D\L	8F#</L	.
8AA\J	8D</J	.
=3	=3	=3
8D\L	8A<L 8F#</	.
8AA\J	8F#<J 8D</	.
4D\	4A< 4F#</	.
!LO:TX:a:t=P:problem:mixed beam	!LO:TX:a:t=P:problem:mixed beam	!
8F#L 8D\	8d<L 8A</	.
16DL 16DD/	16ddL 16d\	.
16DJJ 16DD/	16ddJJ 16d\	.
=4	=4	=4
*Xtuplet	*Xtuplet	*
[4D [4DD/	[4dd [4d\	.
12D]L 12DD/]	12dd]L 12d\]	.
12D 12DD/	12dd 12d\	.
12DJ 12DD/	12ddJ 12d\	.
12DL 12DD/	12ddL 12d\	.
12D 12DD/	12dd 12d\	.
12DJ 12DD/	12ddJ 12d\	.
=5||	=5||	=5||
!	!LO:TX:b:i:t=espressivo.	!
8BBB/	4.dd 4.f# 4.d\	.
8BB/L	.	.
8d 8F#/	.	.
8BB/J	8dd\	.
8c#L 8G 8E/	8cc#m\L	.
8BB/J	16b\L	.
.	16a#X\JJ	.
!!LO:LB:g=original
=6	=6	=6
8BBB\	8aL 8d\	.
8BB\L	16f#L 16d\	.
.	16f#JJ 16d\	.
8B 8F#\	4.f# 4.d\	.
8BB\J	.	.
8BL 8F#\	.	.
8BB\J	8b\	.
=7	=7	=7
8EE\L	8.cc#L 8.g\	<
8E\	.	.
.	16dd\Jk	.
8c# 8G\	8ee\L	.
8E\J	8ee\J	.
8EE#X\L	8ddL 8g#X\	.
8dJ 8G#X 8E#X\	8b\J	[[
=8	=8	=8
*	*2\right	*
8FF#\L	2.ff# 2.a#X 2.f#\	.
8F#\	.	.
8c# 8A#X\	.	.
8F#\J	.	.
8c#L 8A#\	.	.
8F#\J	.	.
=9	=9	=9
8DD/	8.aa:L 8.dd: 8.f#:\	>
8F#\L	.	.
.	16ff#\Jk	.
8d 8A\	4ff# 4dd 4f#\	.
8F#\J	.	.
8c#L 8B-X 8G\	8.eeL 8.gM\	]
8A\J	.	.
.	16dd\Jk	.
=10	=10	=10
8DD/	4dd 4f#\	.
8F#\L	.	.
8d 8A\	8.a\L	.
8F#\J	.	.
.	16a\Jk	.
8dL 8A\	16g#X\LL	<
.	16a\	.
8F#\J	16dd\	.
.	16ff#\JJ	[[
=11	=11	=11
8DD/	8.aaL 8.dd 8.f#\	>
8F#\L	.	.
.	16ff#\Jk	.
8d 8A\	4ff# 4dd 4f#\	.
8F#\J	.	.
8c#L 8B-X 8G\	8.eeL 8.gM\	.
8A\J	.	.
.	16dd\Jk	]]
!!LO:LB:g=original
=12	=12	=12
8DD/	4.dd 4.f#\	.
8F#\L	.	.
8d 8A\	.	.
8F#\J	8dd\L	.
8EE\L	8cc# 8e\	.
8c#J 8G 8E\	8g\J	.
=13	=13	=13
8FF#\L	16f#LL 16d\	.
.	16g\	p
8D\	16f#\	.
.	16b\JJ	.
8B 8G\	4b 4e#X 4d\	.
8D\J	.	.
8EL 8FF#\	4a#X 4f# 4c#\	.
8FF#\J	.	.
=14	=14	=14
8BBL 8BBB/	4b 4f# 4d 4B\	.
!LO:TX:a:i:t=staccato	!	!
8FF#/J	.	.
16BB/LL	4r	.
16BB/	.	.
16BB/	.	.
16BB/JJ	.	.
8BB/L	4r	.
8FF#/J	.	.
=15	=15	=15
8BB\L	8D#X</L	.
8FF#\J	8BB</J	.
16BB\LL	16D#</LL	.
16BB\	16D#</	.
16BB\	16D#</	.
16BB\JJ	16D#</JJ	.
8BB\L	8D#</L	.
8FF#\J	8BB</J	.
=16	=16	=16
8BB\L	8F#<L 8D#X</	.
8FF#\J	8D#<J 8BB</	.
!	!LO:TX:b:i:t=ten	!
4BB\	4F#< 4D#</	.
!LO:TX:a:t=P:problem:mixed beam	!LO:TX:a:t=P:problem:mixed beam	!
8D 8BB\L	8B<L 8F#</	.
16BBL 16BBB/	16bL 16B\	.
16BBJJ 16BBB/	16bJJ 16B\	.
=17	=17	=17
[4BB [4BBB/	[4b [4B\	<
12BB]L 12BBB/]	12b]L 12B\]	.
12BB 12BBB/	12b 12B\	.
12BBJ 12BBB/	12bJ 12B\	.
12BBL 12BBB/	12bL 12B\	.
12BB 12BBB/	12b 12B\	.
12BBJ 12BBB/	12bJ 12B\	[[
!!LO:LB:g=original
=18	=18	=18
*	*tremolo	*
4GG 4GGG/	32b/LLL	f
.	32B/	.
.	32b/	.
.	32B/	.
.	32b/	.
.	32B/	.
.	32b/	.
.	32B/	.
!LO:TX:a:i:t=tempertoso	!	!
8AAL 8AAA/	32b/	.
.	32B/	.
.	32b/	.
.	32B/	.
8BB 8BBB/	32b/	.
.	32B/	.
.	32b/	.
.	32B/	.
8AA 8AAA/	32b/	.
.	32B/	.
.	32b/	.
.	32B/	.
8GGJ 8GGG/	32b/	.
.	32B/	.
.	32b/	.
.	32B/JJJ	.
=19	=19	=19
8.BBB/L	32ddLLL 32d\	.
.	32e#X\	.
.	32f#\	.
.	32b\	.
.	32dd\	.
.	32ee#X\	.
*clefG2	*	*
16bJk 16B/	32ff#\	.
.	32bb\	.
*	*8va	*
2b 2B/	32ddd\	.
.	32eee#X\	.
.	32fff#\	.
.	32bbb\JJJ	.
.	32dddd\LLL	.
.	32bbb\	.
.	32fff#\	.
.	32eee#\	.
*	*X8va	*
!	!LO:TX:b:t=poco a poco cresc_:problem:dynamics with extention lines	!LO:HP:t=poco a poco cresc_
.	32ddd\	<
.	32bb\	.
.	32ff#\	.
.	32ee#\	.
.	32dd\	.
.	32b\	.
.	32f#\	.
.	32e#X\JJJ	.
*clefF4	*	*
=20	=20	=20
4GG 4GGG/	32b/LLL	.
.	32B/	.
.	32b/	.
.	32B/	.
.	32b/	.
.	32B/	.
.	32b/	.
.	32B/	.
8AAL 8AAA/	32b/	.
.	32B/	.
.	32b/	.
.	32B/	.
8BB 8BBB/	32b/	.
.	32B/	.
.	32b/	.
.	32B/	.
8AA 8AAA/	32b/	.
.	32B/	.
.	32b/	.
.	32B/	.
8GGJ 8GGG/	32b/	.
.	32B/	.
.	32b/	.
.	32B/JJJ	.
=21	=21	=21
8.BBB/L	32ddLLL 32d\	.
.	32e#X\	.
.	32f#\	.
.	32b\	.
.	32dd\	.
.	32ee#X\	.
*clefG2	*	*
16bJk 16B/	32ff#\	.
.	32bb\	.
*	*8va	*
2b 2B/	32ddd\	.
.	32eee#\	.
.	32fff#\	.
.	32bbb\JJJ	.
.	32dddd\LLL	.
.	32bbb\	.
.	32fff#\	.
.	32eee#\	.
*	*X8va	*
.	32ddd\	.
.	32bb\	.
.	32ff#\	.
.	32ee#\	.
.	32dd\	.
.	32b\	.
.	32f#\	.
.	32e#\JJJ	[[
*clefF4	*	*
=22	=22	=22
4BB-X 4BBB-X/	32dd/LLL	.
.	32d/	.
.	32dd/	.
.	32d/	.
.	32dd/	.
.	32d/	.
.	32dd/	.
.	32d/	.
8CnL 8CCn/	32dd/	.
.	32d/	.
.	32dd/	.
.	32d/	.
8D 8DD/	32dd/	.
.	32d/	.
.	32dd/	.
.	32d/	.
8C 8CC/	32dd/	.
.	32d/	.
.	32dd/	.
.	32d/	.
8BB-J 8BBB-/	32dd/	.
.	32d/	.
.	32dd/	.
.	32d/JJJ	.
*	*Xtremolo	*
!!LO:LB:g=original
=23	=23	=23
8.DDL 8.DDD/	32ffnLLL 32fn\	.
.	32g#X\	.
.	32a\	.
.	32dd\	.
.	32ff\	.
.	32gg#X\	.
*clefG2	*	*
16ddJk 16d/	32aa\	.
.	32ddd\	.
*	*8va	*
2dd 2d/	32fff\	.
.	32ggg#\	.
.	32aaa\	.
.	32dddd\JJJ	.
.	32ffff#\LLL	.
.	32dddd\	.
.	32aaa\	.
.	32ggg#\	.
*	*X8va	*
.	32fff#\	.
.	32ddd\	.
.	32aa\	.
.	32gg#\	.
.	32ff\	.
.	32dd\	.
.	32a\	.
.	32g#\JJJ	.
*clefF4	*	*
=24	=24	=24
!	!	!LO:HP:t=molto cresc
4BB-X 4BBB-X/	32dd/LLL	<
.	32d/	.
.	32dd/	.
.	32d/	.
.	32dd/	.
.	32d/	.
.	32dd/	.
.	32d/JJJ	.
8BBnL 8BBBn/	32dd#X/LLL	.
.	32d#X/	.
.	32dd#/	.
.	32d#/	.
8AAJ 8AAA/	32dd#/	.
.	32d#/	.
.	32dd#/	.
.	32d#/JJJ	.
4Cn 4CCn/	32ee/LLL	.
.	32e/	.
.	32ee/	.
.	32e/	.
.	32ee/	.
.	32e/	.
.	32ee/	.
.	32e/JJJ	.
=25	=25	=25
4C#X 4CC#X/	32ee#X/LLL	.
.	32e#X/	.
.	32ee#/	.
.	32e#/	.
.	32ee#/	.
.	32e#/	.
.	32ee#/	.
.	32e#/JJJ	.
8DL 8DD/	32ff#/LLL	.
.	32f#/	.
.	32ff#/	.
.	32f#/	.
8CnJ 8CCn/	32ff#/	.
.	32f#/	.
.	32ff#/	.
.	32f#/JJJ	.
4E-X 4EE-X/	32gg/LLL	.
.	32g/	.
.	32gg/	.
.	32g/	.
.	32gg/	.
.	32g/	.
.	32gg/	.
.	32g/JJJ	.
!!LO:LB:g=original
=26	=26	=26
4GG#X 4GGG#X/	32gg#XLLL 32g#X\	ff
.	32b\	.
.	32dd\	.
.	32ffn\	.
.	32gg#\	.
.	32bb\	.
.	32ddd\	.
.	32fffn\	.
*clefG2	*	*
*tuplet	*8va	*
!LO:TUP:a:problem:klamra łukowa	!	!
12gg#XL 12g#X\	32ggg#X\	.
.	32bbb\	.
.	32dddd\	.
12gg# 12g#\	.	.
.	32ffffn\JJJ	.
.	32gggg#X\LLL	.
.	32ffff\	.
12gg#J 12g#\	.	.
.	32dddd\	.
.	32bbb\	.
!LO:TUP:a:problem:klamra łukowa	!	!
12gg#L 12g#\	32ggg#\	.
*	*X8va	*
.	32fff\	.
.	32ddd\	.
12g#\	.	.
.	32bb\	.
.	32gg#\	.
.	32ff\	.
12g#\J	.	.
.	32dd\	.
.	32b\JJJ	.
=27	=27	=27
8gg#X\L	8g#X\L	.
8dd\	8dd\J	.
8ee\	8ee\L	.
.	32qqee/LLL	.
.	32qqggn/JJJ	.
8ffn\	8ffn\J	.
8ee\	8ee\L	.
8dd\J	8dd\J	.
=28||	=28||	=28||
!	!	!LO:DY:t=pp.
8.aL 8.f# 8.A/	8.aaL 8.dd 8.a'\	pp
16f#Jk 16d 16A/	16ff#Jk 16dd 16a'\	.
!	!LO:TX:b:i:t=scherzando	!
8f# 8d 8A/	4.ff# 4.dd 4.a\	.
*clefF4	*	*
8AAA/L	.	.
8AA/	.	.
8f#J 8d 8A/	8ff# 8dd 8a'\	.
=29	=29	=29
8.f#L 8.d 8.F#\	8.ff#L 8.b 8.f#'\	.
16dJk 16B 16F#\	16ddJk 16b 16f#'\	.
!LO:TX:a:t=P:problem:mixed beam	!	!
8dL 8B 8F#\	4.dd 4.b 4.f#'\	.
8BBB/	.	.
8BB/	.	.
8dJ 8B 8F#/	8dd 8b 8f#'\	.
=30	=30	=30
!LO:TX:a:t=P:problem:mixed beam	!	!
8.GGL 8.GGG/	8.eeL 8.b 8.e'\	.
16BJk 16G\	16dd#XJk 16d#X'\	.
8BL 8G\	8eeL 8b 8e'\	.
8BJ 8G\	8ggJ 8g'\	.
8AA\L	8ff#L 8cc# 8f#'\	.
8c#J 8G\	8eeJ 8e'\	.
!!LO:LB:g=original
=31	=31	=31
!LO:TX:a:t=P:problem:mixed beam	!	!
8DD/L	8aaL 8ff# 8dd 8a'\	.
8dJ 8A 8F#\	16gg#XL 16g#X'\	.
.	16bbJJ 16b'\	.
!LO:TX:a:t=P:problem:mixed beam	!	!
8dL 8A 8F#\	4.aa 4.a\	.
16AAL 16AAA/	.	.
16BBJJ 16BBB/	.	.
16AALL 16AAA/	.	.
16FF# 16FFF#/	.	.
16GG 16GGG/	8aa 8a\	.
16EEJJ 16EEE/	.	.
=32	=32	=32
!LO:TX:a:t=P:problem:mixed beam	!	!
8.DDL 8.DDD/	8.aaL 8.ff# 8.a\	p
16dJk 16A 16F#\	16ff#Jk 16dd 16f#\	.
16dLL 16A 16F#\	4.ff# 4.dd 4.f#\	.
16d 16A 16F#\	.	.
16d 16A 16F#\	.	.
16dJJ 16A 16F#\	.	.
4d 4A 4F#\	.	.
.	8ff# 8dd 8f#\	.
=33	=33	=33
8.BBL 8.BBB\	8.ff#L 8.dd 8.f#\	.
16BJk 16F# 16D\	16ddJk 16b 16d\	.
16BLL 16F# 16D\	4.dd 4.b 4.d\	.
16B 16F# 16D\	.	.
16B 16F# 16D\	.	.
16BJJ 16F# 16D\	.	.
4B 4F# 4D\	.	.
.	8dd 8b 8d\	.
=34	=34	=34
8.GGL 8.GGG\	8.eeL 8.b 8.e\	.
16BJk 16G 16E\	16dd#XJk 16d#X\	.
8BL 8G 8E\	8eeL 8b 8e\	.
8BJ 8G 8E\	8ggJ 8g\	.
8AA\L	8bL 8g 8B\	.
8AJ 8G\	8cc#J 8c#\	.
=35	=35	=35
.	8qc#\	.
*	*2\left	*
8r	2ee 2a 2g\	.
16AALL 16AAA\	.	.
16GG#XJJ 16GGG#X\	.	.
16AALL 16AAA\	.	.
16AA#X 16AAA#X\	.	.
16BB 16BBB\	.	.
16C#JJ 16CC#\	.	.
!	!LO:TX:b:t=↓	!
8D 8DD\	8dd 8a 8f# 8d\	.
8r	8r	.
!!LO:PB:g=original
=36	=36	=36
!	!	!LO:DY:t=p.
8AL 8AA\	8r	p
16c#L 16G#X\	4ee 4a 4g\	.
16B\JJ	.	.
8A\	.	.
4c# 4E\	4ee 4a 4g\	.
8c# 8A\	8ee 8a 8g\	.
=37	=37	=37
8AA\	8r	.
*clefG2	*	*
8aL 8g 8c#\	16gg#X\LL	.
.	16bb\JJ	.
8a 8g 8c#\	16bb\LL	.
.	16aa\	.
.	8qbb/	.
8aJ 8g 8B#\	16aa\	.
.	16gg#\JJ	.
8aL 8g 8c#\	8aa\	.
8A\J	8r	.
*clefF4	*	*
=38	=38	=38
8AL 8AA\	8r	.
16dL 16G#X\	4ff# 4dd 4a/	.
16B\JJ	.	.
8A\	.	.
4d 4F#\	4ff# 4dd 4a/	.
8d 8A\	8ff# 8dd 8a/	.
=39	=39	=39
8AA\	8r	.
*clefG2	*	*
8aL 8f# 8d\	16gg#X\LL	.
.	16bb\JJ	.
8a 8f# 8d	16bb\LL	.
.	16aa\	.
.	8qbb/	.
8aJ 8f# 8c#\	16aa\	.
.	16gg#\JJ	.
8aL 8f# 8d\	8aa\	.
8A\J	8r	.
*clefF4	*	*
=40	=40	=40
!	!	!LO:DY:t=f.
16C#LL 16CC#\	8.ccc#L 8.ee#X 8.cc#\	f
16G#X\	.	.
16F#\	.	.
16G#\JJ	16ccc#Jk 16cc#\	.
16A\LL	8ccc#L 8ff# 8cc#\	.
16G#\	.	.
16A\	8bb 8b\	.
16B\JJ	.	.
16c#\LL	8aa 8cc# 8a\	.
16B\	.	.
16c#\	8ggJ 8g\	.
16d\JJ	.	.
!!LO:LB:g=original
=41	=41	=41
8.c#L 8.A\	16ff#LL 16cc# 16f#\	.
.	16e#X\	.
.	16f#\	.
16c#\Jk	16g#X\JJ	.
8c#\L	16a\LL	.
.	16g#\	.
8B\	16a\	.
.	16b\JJ	.
8A\	16cc#\LL	.
.	16b\	.
8G\J	16cc#\	.
.	16dd\JJ	.
=42	=42	=42
16G#XLL 16C#\	8.cc#L 8.e#X\	.
16GG#X\	.	.
16AA\	.	.
16GG#\JJ	16cc#\Jk	.
16FF#/LL	8cc#L 8a\	.
16GG#/	.	.
16AA/	8b 8g#X\	.
16BB/JJ	.	.
16C#/LL	8a 8f#\	.
16BB/	.	.
16C#/	8g#J 8e#\	.
16CC#/JJ	.	.
=43	=43	=43
8.AL 8.FF#\	16f#/LL	.
.	16c#/	.
.	16d/	.
16A\Jk	16c#/JJ	.
8A\L	16B#X/LL	.
.	16c#/	.
!	!LO:TX:b:t=poco dim_:ext=ut:problem:dynamics with extention lines	!LO:HP:t=poco dim.
8G#X\J	16d#X/	>
.	16e#X/JJ	.
8F#L 8C#\	16f#/LL	.
.	16g#X/	.
8E#X\J	16a/	.
.	16g#/JJ	.
=44	=44	=44
8.AL 8.FF#\	16f#/LL	.
.	16cc#/	.
.	16dd/	.
16a\Jk	16cc#/JJ	.
8a\L	16b#X\LL	.
.	16cc#\	.
8g#X\J	16dd#X\	.
.	16ee#X\JJ	.
8f#L 8c#\	16ff#\LL	.
.	16aa\	.
8e#X\J	16gg#X\	]
.	16ccc#\JJ	.
*clefG2	*	*
=45	=45	=45
*	*2\right	*
8.f#L 8.A 8.F#/	2.ff#tt\	.
16aJk 16c#/	.	.
8aL 8c#/	.	.
8b 8d/	.	.
8a 8c#/	.	.
8g#XJ 8B#X/	.	.
*clefF4	*	*
!!LO:LB:g=original
=46	=46	=46
4a 4c# 4F#\	4ff#tt\	<
4r	4ggnTT\	.
4r	4gg#Xtt\	[[
=47	=47	=47
8AA 8AAA/	2.aaTT\	f
*clefG2	*	*
16ggLL 16g\	.	.
!LO:TX:a:i:t=con bravura	!	!
16eeJJ 16e\	.	.
16cc#LL 16c#\	.	.
16b 16B\	.	.
16cc# 16c#\	.	.
16bJJ 16B\	.	.
16aLL 16A\	.	.
16g#X 16G#X\	.	.
16gn 16Gn\	.	.
16eJJ 16E\	.	.
*clefF4	*	*
=48	=48	=48
16c#LL 16C#\	2.aaTT\	.
16B 16BB\	.	.
16c# 16C#\	.	.
16BJJ 16BB\	.	.
16ALL 16AA\	.	.
16G#X 16GG#X\	.	.
16Gn 16GGn\	.	.
16EJJ 16EE\	.	.
16C#LL 16CC#\	.	.
16AA 16AAA\	.	.
16GG 16GGG\	.	.
16EEJJ 16EEE\	.	.
=49	=49	=49
!LO:TX:a:t=P:problem:mixed beam	!	!
8.DDL 8.DDD/	8.aaL 8.ff# 8.dd 8.a\	ff
16dJk 16A 16F#\	16ff#Jk 16dd 16a 16f#\	.
!LO:TX:a:t=P:problem:mixed beam	!LO:TX:b:i:t=fieramente	!
8dL 8A 8F#\	4.ff# 4.dd 4.a 4.f#\	.
8DD 8DDD/	.	.
8D 8DD/	.	.
8dJ 8D/	8ff# 8dd 8a 8f#\	.
=50	=50	=50
!LO:TX:a:t=P:problem:mixed beam	!	!
8.BBL 8.BBB/	8.ff#L 8.dd 8.b 8.f#\	.
16BJk 16F# 16D\	16ddJk 16b 16f# 16d\	.
!LO:TX:a:t=P:problem:mixed beam	!	!
8BL 8F# 8D\	4.dd 4.b 4.f# 4.d\	.
8BBB 8BBBB/	.	.
8BB 8BBB/	.	.
8BJ 8BB/	8dd 8b 8f# 8d\	.
=51	=51	=51
!LO:TX:a:t=P:problem:mixed beam	!	!
8.GGL 8.GGG/	8.eeL 8.b 8.g 8.e\	.
16BJk 16G 16E\	16dd#XJk 16d#X\	.
8BL 8G 8E\	8eeL 8e\	.
8BJ 8G 8E\	8ggJ 8g\	.
!LO:TX:a:t=P:problem:mixed beam	!	!
8AAL 8AAA/	8ff#L 8cc# 8f#\	.
8c#J 8G\	8eeJ 8e\	.
!!LO:LB:g=original
=52	=52	=52
8DL 8DD\	8aaL 8ff# 8dd 8a\	.
8dJ 8A 8F#\	16gg#XL 16g#X\	.
.	16bbJJ 16b\	.
!LO:TX:a:t=P:problem:mixed beam	!	!
8dL 8A 8F#\	4.aa 4.a\	.
16AAL 16AAA/	.	.
16BBJJ 16BBB/	.	.
16AALL 16AAA/	.	.
16FF# 16FFF#/	.	.
16GG 16GGG/	8aa 8a\	.
16EEJJ 16EEE/	.	.
=53	=53	=53
!LO:TX:a:t=P:problem:mixed beam	!	!
8.DDL 8.DDD/	8.aaL 8.ff# 8.dd 8.a\	.
16dJk 16A 16F#\	16ff#Jk 16dd 16a 16f#\	.
!LO:TX:a:t=P:problem:mixed beam	!	!
8dL 8A 8F#\	4.ff# 4.dd 4.a 4.f#\	.
8DD 8DDD/	.	.
8D 8DD/	.	.
8dJ 8D/	8ff# 8dd 8a 8f#\	.
=54	=54	=54
!LO:TX:a:t=P:problem:mixed beam	!	!
8.BB-XL 8.BBB-X/	8.dddL 8.gg#X 8.dd\	.
16dJk 16G#X 16D\	16gg#Jk 16dd 16g#X\	.
!LO:TX:a:t=P:problem:mixed beam	!	!
8dL 8G# 8D\	4.gg# 4.dd 4.g#\	.
8AAA- 8AAAA-X/	.	.
8BB- 8BBB-/	.	.
8B-XJ 8BB-/	8gg# 8dd 8g#\	.
=55	=55	=55
!LO:TX:a:t=P:problem:mixed beam	!	!
8AAL 8AAA/	8aaL 8ff# 8dd 8a\	.
!	!LO:TX:b:i:t=con tutta fozza e sostenuto.	!
8dJ 8A 8F#\	16gg#XL 16g#X\	.
.	16bbJJ 16b\	.
8dL 8A 8F#\	8aaL 8a\	.
8d 8A 8F#\	8ff# 8dd 8a 8f#\	.
8A 8F# 8D\	8dd 8a 8f# 8d\	.
8GJ 8D 8BB-X\	8b-XJ 8gn 8d 8B-X\	.
=56	=56	=56
!LO:TX:a:t=P:problem:mixed beam	!	!
8EL 8D 8AA\	8aL 8e 8d 8A/	.
8AAA/J	16g#XL 16G#X/	.
.	16bJJ 16B/	.
!LO:TX:a:t=P:problem:mixed beam	!	!
8EL 8D 8AA\	4.a 4.A/	.
8AAA/J	.	.
!LO:TX:a:t=P:problem:mixed beam	!	!
8GL 8C# 8AA\	.	.
8AAA/J	8cc# 8a 8g# 8c#/	.
!!LO:LB:g=original
=57	=57	=57
!LO:TX:a:t=P:problem:mixed beam	!	!
8DL 8DD/	8dd 8f# 8d\	pp
16c#\L	8r	.
16e\JJ	.	.
8d\	8ryy	.
!	!LO:TX:b:i:t=scherzando.	!
8ryy	8d</	.
8d 8cn\	8ryy	.
8ryy	8d</	.
=58	=58	=58
8dL 8B\	8dddL 8ff# 8dd\	.
8d\J	16cc#\L	.
.	16ee\JJ	.
8dL 8B\	8dddL 8gg 8dd\	.
8d\J	8dd\J	.
8dL 8B-X\	8dddL 8gg#X 8dd\	.
8d\J	8dd\J	.
=59	=59	=59
8c#L 8AA\	8aa 8ee 8a 8g\	.
16GG#X\L	8r	.
16BB\JJ	.	.
8c#L 8AA\	8aa 8ee 8a 8g\	.
16GG#\L	8r	.
16BB\JJ	.	.
16c#LL 16AA\	8aa 8ee 8a 8g\	.
16GGn\	.	.
16EE\	8r	.
16FF#\JJ	.	.
=60	=60	=60
8DL 8DD\	8cc# 8f# 8d\	.
!	!	!LO:DY:t=p.
16C#\L	8r	p
16E\JJ	.	.
8D\	8ryy	.
8ryy	8D</	.
8D 8Cn\	8ryy	.
8ryy	8D</	.
=61	=61	=61
8DL 8BB/	8ddL 8f# 8d\	.
8D/J	16c#\L	.
.	16e\JJ	.
8DL 8BB/	8ddL 8g 8d\	.
8D/J	8d\J	.
8DL 8EE/	8ddL 8g#X 8d\	.
8D/J	8d\J	.
=62	=62	=62
8C#L 8EE 8AAA\	8a 8e 8A 8G\	.
16DD#X\L	8r	.
16FF#\JJ	.	.
8C#L 8EE\	8a 8e 8A 8G\	.
16DD#\L	8r	.
16FF#\JJ	.	.
16C#LL 16EE 16AAA\	8a 8e 8A 8G\	.
16AAA\	.	.
16GGG#X\	8r	.
16AAA\JJ	.	.
!!LO:LB:g=original
=63	=63	=63
!	!	!LO:DY:t=p.
8DDL 8DDD\	8d< 8F#< 8D</	p
16C#\L	8ryy	.
16E\JJ	.	.
8D\	8ryy	.
8ryy	8D</	.
4BB-X 4GG\	32D</LLL	.
.	32G</	.
.	32B-X</	.
.	32c#</JJJ	.
.	32d\LLL	.
.	32g\	.
.	32b-X\	.
.	32cc#\JJJ	.
=64	=64	=64
8DL 8DD\	8dd 8f# 8d\	.
16c#\L	8r	.
16e\JJ	.	.
8d\	8ryy	.
8rc	8d\	.
4G#X 4BB-X\	32d\LLL	.
.	32fn\	.
.	32g#X\	.
.	32cc#\JJJ	.
.	32dd\LLL	.
.	32ffn\	.
.	32gg#X\	.
.	32ccc#\JJJ	.
=65	=65	=65
*	*ped	*
8DL 8DD\	8dddL 8ff# 8dd\	.
8A\	8aaJ 8a\	.
8d\	8dddL 8dd\	.
8A\J	8aaJ 8a\	.
*clefG2	*	*
8d/L	8dddL 8dd\	.
*	*8va	*
16ddL 16d/	16ddddL 16ddd\	.
16ddJJ 16d/	16ddddJJ 16ddd\	.
=66	=66	=66
4dd 4d;/	4dddd 4ddd;\	.
*clefF4	*	*
*Xtuplet	*X8va	*
12r	12r	.
!	!LO:TX:a:t=md	!LO:DY:t=mez. forte
12DD\L	12D</L	mf
12CC#\J	12C#</J	.
12DD\L	12D</L	.
12EE\	12E</	.
12EE#X\J	12E#X</J	.
=67	=67	=67
8FF#L 8FFF#\	8f#< 8c#< 8A< 8F#</	.
16E#X\L	8rd<	.
16G#X\JJ	.	.
8F#\	8ryy	.
8ryy	8F#</	.
!	!LO:TX:a:t=P:problem:mixed beam	!
4D 4BB\	32F#</LLL	.
.	32B</	.
.	32d\	.
.	32e#X\JJJ	.
.	32f#\LLL	.
.	32b\	.
.	32dd\	.
.	32ee#X\JJJ	.
!!LO:LB:g=original
=68	=68	=68
8AL 8C# 8FF#\	4ff# 4cc# 4a 4f#\	.
16e#X\L	.	.
16g#X\JJ	.	.
8f#\	8ryy	.
8r	8f#/	.
4d 4A\	32f#/LLL	.
.	32a/	.
.	32ccn/	.
.	32ee#X/JJJ	.
.	32ff#\LLL	.
.	32aa\	.
.	32cccn\	.
.	32eee#X\JJJ	.
*clefG2	*	*
=69	=69	=69
8a#XL 8c# 8F#/	8fff#L 8aa#X 8ff#\	pp
*	*ped	*
8c#/J	8eeeJ 8ee\	.
8f#/L	8fff#L 8ff#\	.
8c#/J	8ccc#J 8cc#\	.
8f#\L	8fff#L 8ff#\	.
*	*8va	*
16ff#L 16f#\	16ffff#L 16fff#\	.
16ff#JJ 16f#\	16ffff#JJ 16fff#\	.
=70	=70	=70
4.ff# 4.f#;\	4.ffff# 4.fff#;\	.
*clefF4	*	*
*	*X8va	*
8r	8r	.
16FF#\LL	16F#</LL	f
16GG\	16G</	.
16GG#X\	16G#X</	.
!	!LO:TX:b:i:t=rioregliando.	!
16BB\JJ	16B</JJ	.
=71	=71	=71
8AAL 8AAA\	8A</	.
8E\J	8ryy	.
8ryy	16A</LL	.
.	16A</	.
8ryy	16A</	.
.	16A</JJ	.
8ryy	8A</	.
8E\	8ryy	.
=72	=72	=72
8A\L	8c#</L	.
8E\J	8A</J	.
16A\LL	16c#</LL	.
16A\	16c#</	.
16A\	16c#</	.
16A\JJ	16c#</JJ	.
8A\L	8c#</L	.
8E\J	8A</J	.
!!LO:PB:g=original
=73	=73	=73
8A\L	8eL 8c#/	.
8E\J	8c#J 8A/	.
4A\	4e 4c#/	.
8c#L 8A\	8aL 8e/	.
16AL 16AA\	16aaL 16a/	.
16AJJ 16AA\	16aaJJ 16a/	.
=74	=74	=74
4A 4AA;\	4aa 4a/	.
4r	12r	.
.	12a/L	.
.	12b/J	.
4r	12cc#/L	.
.	12dd/	.
.	12ee/J	.
=75	=75	=75
!LO:TX:t=P:problem:mixed beam	!	!
8DD/L	4.ffn: 4.a: 4.d:\	p
8D\	.	.
!	!LO:TX:b:i:t=mesto	!
8fn 8A\	.	.
8D\	8ff\	.
8g 8c# 8B-X\	8eem\L	.
8D\J	16dd\L	.
.	16cc#\JJ	.
=76	=76	=76
8DD\L	8ddL 8fn\	.
8Fn\	16a\L	.
.	16a\JJ	.
8d 8A\	4.a 4.f\	.
8F\	.	.
8d 8A\	.	.
8F\J	8ffn\	.
=77	=77	=77
8AL 8AA\	4ee: 4a: 4c#:\	.
8E\J	.	.
16A\LL	4r	.
16A\	.	.
16A\	.	.
16A\JJ	.	.
8A\L	4r	.
8E\J	.	.
=78	=78	=78
8A\L	8c#/L	.
8E\J	8A/J	.
16A\LL	16c#/LL	.
16A\	16c#/	.
16A\	16c#/	.
16A\JJ	16c#/JJ	.
8A\L	8c#/L	.
8E\J	8A/J	.
!!LO:LB:g=original
=79	=79	=79
4.cn 4.AA\	8aL 8e'/	.
.	24f#/L	.
.	24e/	.
.	24f#/JJ	.
.	8g#X'/L	.
8c\	24a/L	.
.	24g#/	.
.	24a/JJ	.
8BL 8E\	8bL 8g#'/	.
16A\L	24ccn/L	.
.	24b/	.
16G#X\JJ	.	.
.	24cc/JJ	.
=80	=80	=80
8AL 8AA\	8aL 8cn'/	.
16E\L	8eeJ 8ccn'/	.
16E\JJ	.	.
4.E\	8dd#XL 8b'/	.
.	8eeJ 8cc'/	.
.	8ccL 8a'/	.
8cn\	8aJ 8e'/	.
=81	=81	=81
12EE\L	8bL 8e/	.
12BB\	.	.
.	8eJ 8B/	.
12G#X\J	.	.
12BB\L	16bLL 16e/	.
.	16b 16e/	.
12G#\	.	.
.	16b 16e/	.
12e\J	.	.
.	16bJJ 16e/	.
12G#\L	8bL 8e/	.
12BB\	.	.
.	8eJ 8B/	.
12EE\J	.	.
=82	=82	=82
*rep	*	*
12EE\L	8eeL 8b\	.
12BB\	.	.
.	8bJ 8e\	.
12G#X\J	.	.
12BB\L	16eeLL 16b\	.
.	16ee 16b\	.
12G#\	.	.
.	16ee 16b\	.
12e\J	.	.
.	16eeJJ 16b\	.
12G#\L	8eeL 8b\	.
12BB\	.	.
.	8bJ 8e\	.
12EE\J	.	.
*Xrep	*	*
=83	=83	=83
8GL 8Cn\	4.ee 4.gn\	.
24A\L	.	.
24G\	.	.
24A\JJ	.	.
8B\L	.	.
24c#\L	8ee\	.
24B\	.	.
24c#\JJ	.	.
8dL 8Fn\	8ddML 8a-X\	.
24e\L	16ccn\L	.
24d\	.	.
.	16b-y\JJ	.
24e\JJ	.	.
!!LO:LB:g=original
=84	=84	=84
8cnL 8Cn\	8ccnL 8g 8e\	.
8e\J	16g\L	.
.	16g\JJ	.
8f#L 8d#X\	4.g\	.
8gJ 8e\	.	.
8eL 8c\	.	.
8cJ 8G\	8ee 8cc\	.
=85	=85	=85
8GL 8C#\	4.gg 4.ee\	.
24A\L	.	.
24G\	.	.
24A\JJ	.	.
8B\L	.	.
24cn\L	8gg 8ee\	.
24B\	.	.
24c\JJ	.	.
8d#XL 8G\	8ff#L 8dd#Xm\	.
24e\L	16eeL 16ccn\	.
24d#\	.	.
.	16dd#JJ 16b\	.
24e\JJ	.	.
=86	=86	=86
8cnL 8Cn\	8eeL 8ccn\	.
*clefG2	*	*
8ccnJ 8g 8e\	16cc\L	.
.	16cc\JJ	.
8aL 8f# 8d#X\	4.cc\	.
8cc 8g 8e\	.	.
8f# 8d#\	.	.
8eJ 8c\	8ee 8cc\	.
*clefF4	*	*
=87	=87	=87
8Cn\L	16ggLL 16ee\	.
!	!	!LO:DY:t=pp.
.	16aa\	pp
*clefG2	*	*
8ccnJ 8g 8e\	16gg 16ee\	.
.	16ff#JJ 16dd#X\	.
8ccL 8g 8e/	16ggLL 16ee\	.
.	16aa\	.
8ccJ 8f# 8d#X/	16gg 16eeM\	.
.	16ff#JJ 16dd#X\	.
4cc 4g 4e/	16ggLL 16ee\	.
.	16cccn\	.
.	16gg 16ee\	.
.	16ff#JJ 16dd#\	.
*clefF4	*	*
=88	=88	=88
8Cn/	16eeLL 16ccn\	.
.	16ff#\	.
*clefG2	*	*
8g 8e 8cn/	16ee 16cc\	.
.	16dd#XJJ 16b\	.
8gL 8e 8c/	16eeLL 16cc\	.
.	16ff#\	.
8f#XJ 8d#X 8c/	16eeM 16cc\	.
.	16dd#JJ 16b\	.
4g 4e 4c/	16eeLL 16cc\	.
.	16gg\	.
.	16ee 16cc\	.
.	16dd#JJ 16b\	.
*clefF4	*	*
=89	=89	=89
8C#\L	16ccnLL 16a\	.
.	16ee\	.
8cnJ 8A\	16cc 16a\	.
.	16g\JJ	.
8cL 8A\	16aLL 16f#\	.
.	16cc\	.
8G\J	16a 16f#\	.
.	16e\JJ	.
!!LO:LB:g=original
8cnL 8F#\	16gLL 16d#X/	.
.	16a/	.
8Cn\J	16g 16d#/	.
.	16f#/JJ	.
=90	=90	=90
!LO:TX:a:t=P:problem:mixed beam	!LO:TX:b:i:t=poco rit.	!
!	!LO:N:vis=2	!
8CCn/L	2.g 2.eTT/	.
16cnL 16G 16E\	.	.
16cJJ 16G 16E\	.	.
8cL 8G 8E\	.	.
8c 8G 8E\	.	.
8c 8G 8E\	.	.
8cJ 8G 8E;\	.	.
=91	=91	=91
8GGL 8CC#/	4.ee-X 4.g 4.e-X\	ff
24AA/L	.	.
!	!LO:TX:b:i:t=con furia	!
24GG/	.	.
24AA/JJ	.	.
8BB/L	.	.
24Cn/L	8ee- 8e-\	.
24BB/	.	.
24C/JJ	.	.
8DL 8GG/	8ddL 8g 8d\	.
24E-X/L	16ccnL 16cn\	.
24D/	.	.
.	16bJJ 16B\	.
24E-/JJ	.	.
=92	=92	=92
!LO:TX:a:t=P:problem:mixed beam	!	!
8CnL 8CCn/	8ccnL 8cn\	.
8GJ 8E-X\	16gL 16c\	.
.	16gJJ 16c\	.
8F#L 8D\	4.g 4.c\	.
8G 8E-\	.	.
8E- 8C\	.	.
8CJ 8GG\	8cc 8g\	.
=93	=93	=93
8CnL 8CCn/	16ee-XLL 16f#\	.
.	16ee-J 16f#\	.
8FF#J 8FFF#/	8cccnJ 8ee-\	.
16CLL 16CC/	8eee-XL 8ff#\	.
16C 16CC/	.	.
*	*8va	*
16C 16CC/	8ccccnyJ 8eee-\	.
16CJJ 16CC/	.	.
*	*X8va	*
8CL 8CC/	8eee-L 8ff#\	.
8FF#J 8FFF#/	8ee-J 8ccn\	.
=94	=94	=94
*rep	*	*
8CnL 8CCn/	16eeLL 16f#\	.
.	16eeJ 16f#\	.
8FF#J 8FFF#/	8aaJ 8ccn\	.
16CLL 16CC/	8eee-XL 8ff#\	.
16C 16CC/	.	.
16C 16CC/	8aaaJ 8cccn\	.
16CJJ 16CC/	.	.
8CL 8CC/	8eee-L 8ff#\	.
8FF#J 8FFF#/	8ee-XJ 8cc\	.
*Xrep	*	*
!!LO:LB:g=original
=95	=95	=95
12GGL 12CCn/	12gL 12e-X 12G/	.
12AA/	12a 12A/	.
12BB/J	12bJ 12B/	.
12Cn/L	12ccnL 12cn/	.
12D/	12dd 12d/	.
12E-X/J	12ee-XJ 12e-X/	.
4G 4AATT</	4een: 4a: 4c#X:/	.
=96	=96	=96
!	!	!LO:DY:t=ff.
8AAL 8DD/	4.ffn 4.a 4.fn\	ff
24BB/L	.	.
24AA/	.	.
24BB/JJ	.	.
8C#/L	.	.
24D/L	8ee 8e\	.
24C#/	.	.
24D/JJ	.	.
8EL 8AA/	8eeL 8a 8e\	.
24Fn/L	16ddL 16d\	.
24E/	.	.
.	16cc#JJ 16c#\	.
24F/JJ	.	.
=97	=97	=97
8DL 8DD/	8ddL 8d\	.
8AJ 8Fn/	16aL 16d\	.
.	16aJJ 16d\	.
8G#XL 8E/	4.a 4.d\	.
8AJ 8F/	.	.
8FL 8D/	.	.
8DJ 8AA/	8dd 8a\	.
=98	=98	=98
8DL 8DD/	16ffnLL 16g#X\	.
.	16ffJ 16g#\	.
8GG#XJ 8GGG#X/	8dddJ 8ff\	.
*	*8va	*
16DLL 16DD/	8fffnyL 8gg#y\	.
16D 16DD/	.	.
16D 16DD/	8ddddJ 8fff\	.
16DJJ 16DD/	.	.
8DL 8DD/	8fff 8gg#\	.
*	*X8va	*
8GG#J 8GGG#/	8ff 8dd\	.
=99	=99	=99
*rep	*	*
8DL 8DD/	16ffnLL 16g#X\	.
.	16ffJ 16g#\	.
8GG#XJ 8GGG#X/	8dddJ 8ff\	.
*	*8va	*
16DLL 16DD/	8fffnyL 8gg#y\	.
16D 16DD/	.	.
16D 16DD/	8ddddJ 8fff\	.
16DJJ 16DD/	.	.
8DL 8DD/	8fff 8gg#\	.
*	*X8va	*
8GG#J 8GGG#/	8ff 8dd\	.
*Xrep	*	*
!!LO:LB:g=original
=100	=100	=100
12AAL 12DD/	12aL 12fn 12A/	.
12BB/	12b 12B/	.
12C#/J	12cc#J 12c#/	.
12D/L	12ddL 12d/	.
12E/	12ee 12e/	.
12Fn/J	12ffnJ 12f/	.
4A 4BBTT</	4ff#X 4b 4d#X/	.
=101	=101	=101
!	!LO:TX:b:i:t=con forza	!
8E 8EE/	8ee 8g#X 8e/	.
*clefG2	*	*
!LO:TX:b:i:t=con 8va	!LO:TX:a:t=P:problem:mixed beam	!
8ryy	16eee<LL 16gg#X< 16ee</	.
.	16ggg#XJJ 16eee 16gg#X\	.
!	!LO:TX:a:t=P:problem:mixed beam	!
2ryy	16eee<LL 16gg#< 16ee</	.
.	16ggg#JJ 16eee 16gg#\	.
!	!LO:TX:a:t=P:problem:mixed beam	!
.	16ggg#X<LL 16eee< 16gg#</	.
*	*8va	*
.	16eeeeJJ 16ggg# 16eee\	.
*	*X8va	*
!	!LO:TX:a:t=P:problem:mixed beam	!
.	16eee<LL 16gg#< 16ee</	.
.	16ggg#JJ 16eee 16gg#\	.
!	!LO:TX:a:t=P:problem:mixed beam	!
.	16gg#<LL 16ee< 16g#</	.
.	16eeeJJ 16gg# 16ee\	.
*clefF4	*	*
=102	=102	=102
!	!LO:TX:a:t=P:problem:mixed beam	!
2.ryy	16E<LL 16GG#X< 16EE</	.
.	16g#XJJ 16e 16G#X\	.
!	!LO:TX:a:t=P:problem:mixed beam	!
.	16e<LL 16G#X< 16E</	.
.	16gg#XJJ 16ee 16g#\	.
!	!LO:TX:a:t=P:problem:mixed beam	!
.	16e<LL 16G#< 16E</	.
.	16gg#JJ 16ee 16g#\	.
!	!LO:TX:a:t=P:problem:mixed beam	!
.	16g#X<LL 16e< 16G#</	.
.	16eeeJJ 16gg# 16ee\	.
!	!LO:TX:a:t=P:problem:mixed beam	!
.	16e<LL 16G#< 16E</	.
.	16gg#JJ 16ee 16g#\	.
!	!LO:TX:a:t=P:problem:mixed beam	!
.	16G#<LL 16E< 16GG#</	.
.	16eeJJ 16g# 16e\	.
=103	=103	=103
8CnL 8FFn/	4.aa 4.ccn 4.a\	.
24D/L	.	.
24C/	.	.
24D/JJ	.	.
8E/L	.	.
24Fn/L	8aa 8a\	.
24E/	.	.
24F/JJ	.	.
8Gn/L	8ggnL 8g\	.
24A/L	16ffnL 16fn\	.
24G/	.	.
.	16eeJJ 16e\	.
24A/JJ	.	.
!!LO:LB:g=original
=104	=104	=104
8F#XL 8BB\	8dd#XL 8a 8d#X\	.
8cnJ 8A\	16dd#L 16a 16d#\	.
.	16dd#JJ 16a 16d#\	.
8BL 8G#X\	4.dd# 4.a 4.d#\	.
8cJ 8A\	.	.
8AL 8F#\	.	.
8F#J 8BB\	8dd# 8a 8d#\	.
=105	=105	=105
!LO:N:vis=8	!LO:N:vis=8	!
8.EL 8.EE\	8.eeL 8.g#X 8.e\	.
*clefG2	*	*
16eeJk 16g# 16e\	16ggg#Jk 16eee 16gg#\	.
8ee 8g# 8e\	8ggg# 8eee 8gg#\	.
!	!LO:TX:a:t=P:problem:mixed beam	!
4.ryy	16gg#X<LL 16ee< 16g#</	.
*	*8va	*
.	16eeeeJJ 16ggg# 16eee\	.
*	*X8va	*
!	!LO:TX:a:t=P:problem:mixed beam	!
.	16ee<LL 16g#< 16e</	.
.	16ggg#JJ 16eee 16gg#\	.
!	!LO:TX:a:t=P:problem:mixed beam	!
.	16g#<LL 16e< 16G#X</	.
.	16eeeJJ 16gg# 16ee\	.
*clefF4	*	*
=106	=106	=106
16E 16GG#X 16EE\	16ryy	.
16ryy	16g#X 16e 16G#X/	.
!	!LO:TX:a:t=P:problem:mixed beam	!
8ryy	16e<LL 16G#X< 16E</	.
.	16ggJJ 16ee 16g#\	.
!	!LO:TX:a:t=P:problem:mixed beam	!
2ryy	16e<LL 16G#< 16E</	.
.	16ggJJ 16ee 16g#\	.
!	!LO:TX:a:t=P:problem:mixed beam	!
.	16g#X<LL 16e< 16G#</	.
.	16eeeJJ 16gg 16ee\	.
!	!LO:TX:a:t=P:problem:mixed beam	!
.	16e<LL 16G#< 16E</	.
.	16ggJJ 16ee 16g#\	.
!	!LO:TX:a:t=P:problem:mixed beam	!
.	16G#<LL 16E< 16GG#y</	.
.	16eeJJ 16g# 16e\	.
=107	=107	=107
8CnL 8FFn\	4.cccn 4.aa 4.ffn 4.ccn\	.
24D\L	.	.
24C\	.	.
24D\JJ	.	.
8E\L	.	.
24F#\L	16bbLL 16b\	.
24E\	.	.
.	16aaJJ 16a\	.
24F#\JJ	.	.
8G\L	8ggL 8g\	.
24A\L	16ffnL 16fn\	.
24G\	.	.
.	16eeJJ 16e\	.
24A\JJ	.	.
!!LO:PB:g=original
=108	=108	=108
8F#L 8BB\	8dd#XL 8a 8d#X\	.
8cn 8A\	16dd#L 16a 16d#\	.
.	16dd#JJ 16a 16d#\	.
8B 8G#X\	4.dd# 4.a 4.d#\	.
8cJ 8A\	.	.
8AL 8F#\	.	.
8F#J 8BB\	8dd# 8a 8d#\	.
=109	=109	=109
4E 4EE\	8eeL 8g#X 8e\	p
.	16dd#X\L	.
.	16ffn\JJ	.
4r	8ee'\L	.
.	8ee'\J	.
*clefG2	*	*
4ccn 4a\	8ee'\L	.
.	8ee'\J	.
=110	=110	=110
4b 4g#X 4e\	8ee\L	.
.	16dd#X\L	.
.	16ffn\JJ	.
4r	8ee\L	.
.	8ee\J	.
4b-X 4gn 4cn\	8ee\L	.
.	8ee\J	.
=111	=111	=111
4a 4fn\	8ffn\L	.
.	16ee\L	.
.	16gg\JJ	.
4r	8ff\L	.
.	8ff\J	.
*clefF4	*	*
4B 4C#\	16cc#LL 16e#X\	.
.	16dd#X\	.
.	16ee\	.
.	16cc#\JJ	.
=112	=112	=112
4A#X 4C# 4FF#\	8ff#L 8cc# 8f#\	.
.	16ee#X\L	p
.	16gg\JJ	.
4r	8ff#\L	.
.	8ff#\J	.
*clefG2	*	*
4dd 4b\	8ff#\L	.
.	8ff#\J	.
=113	=113	=113
4cc# 4a#X 4f#\	8ff#\L	.
.	16ee#X\L	.
.	16gg\JJ	.
4r	8ff#\L	.
.	8ff#\J	.
4ccn 4an 4d\	8ff#\L	.
.	8ff#\J	.
!!LO:LB:g=original
=114	=114	=114
*clefG2	*	*
4b 4g/	8gg\L	.
.	16ff#\L	.
.	16aa\JJ	.
4r	8gg\L	.
.	8gg\J	.
*clefF4	*	*
4d 4E\	16eeLL 16g#X\	.
.	16ff#\	.
.	16gg#X\	.
.	16ee\JJ	.
=115	=115	=115
4c# 4AA\	8aaL 8ee 8a\	.
.	16gg#X\L	pp
.	16bb\JJ	.
4r	8aa\L	.
!	!LO:TX:b:i:t=innocenta	!
.	8aa\J	.
*clefG2	*	*
4ff# 4dd#X 4a\	8aa\L	.
.	8aa\J	.
=116	=116	=116
8ggL 8ee 8a\	24aa\LL	.
.	24bb\	.
.	24gg#X\	.
16a\L	24aa\	.
.	24eee\	.
16a\JJ	.	.
.	24gg#\JJ	.
8a\L	24aa\LL	.
.	24bb\	.
.	24gg#\	.
8a\J	24aa\	.
.	24eee\	.
.	24gg#\JJ	.
4A/	24aa\LL	.
.	24bb\	.
.	24aa\	.
.	24aa\	.
.	24bb\	.
.	24aa\JJ	.
*clefF4	*	*
=117	=117	=117
4c# 4AA\	8aaL 8ee 8a\	.
.	16gg#X\L	.
.	16bb\JJ	.
4r	8aa\L	.
.	8aa\J	.
*clefG2	*	*
4ff# 4dd#X 4a\	8aa\L	.
.	8aa\J	.
=118	=118	=118
8ggL 8ee 8a\	24aa\LL	.
.	24bb\	.
.	24gg#X\	.
16a\L	24aa\	.
.	24eee\	.
16a\JJ	.	.
.	24gg#\JJ	.
8a\L	24aa\LL	.
.	24bb\	.
.	24gg#\	.
8a\J	24aa\	.
.	24eee\	.
.	24gg#\JJ	.
4A/	24aa\LL	.
.	24bb\	.
.	24aa\	.
.	24aa\	.
.	24bb\	.
.	24aa\JJ	.
*clefF4	*	*
=119	=119	=119
8.AL 8.AA/	24aa\LL	.
.	24bb\	.
.	24aa\	.
.	24aa\	.
.	24bb\	.
*clefG2	*	*
16ggJk 16ee/	.	.
.	24aa\JJ	.
8ggL 8ee/	24aa\LL	.
.	24bb\	.
.	24aa\	.
8ff# 8dd/	24aa\	.
.	24bb\	.
.	24aa\JJ	.
8ee 8cc#/	24aa\LL	.
.	24bb\	.
.	24aa\	.
8ddJ 8b/	24aa\	.
.	24bb\	.
.	24aa\JJ	.
=120	=120	=120
*	*rep	*
8.cc#L 8.a/	24aa\LL	.
.	24bb\	.
.	24aa\	.
.	24aa\	.
.	24bb\	.
16cc#Jk 16a/	.	.
.	24aa\JJ	.
8cc#L 8a/	24aa\LL	.
.	24bb\	.
.	24aa\	.
8b 8g/	24aa\	.
.	24bb\	.
.	24aa\JJ	.
8a 8f#/	24aa\LL	.
.	24bb\	.
.	24aa\	.
8g#XJ 8fn/	24aa\	.
.	24bb\	.
.	24aa\JJ	.
*	*Xrep	*
=121	=121	=121
8gn 8c# 8A/	24aa/LL	pp
.	24bb/	.
.	24aa/JJ	.
!LO:TX:a:t=ms	!	!
24aa>LL 24ee>\	8ryy	.
24ff#>\	.	.
24ee>\JJ	.	.
8ryy	24eeeLL 24aa/	.
.	24bb/	.
.	24aa/JJ	.
!LO:TX:a:t=ms	!	!
24aaa>LL 24eee>\	8ryy	.
24fff#>\	.	.
24eee>\JJ	.	.
*	*8va	*
4ff#> 4ccn> 4a>\	24dddd#XLL 24aaa/	.
.	24bbb/	.
.	24aaa/	.
.	24aaa/	.
.	24bbb/	.
.	24aaa/JJ	.
=122	=122	=122
8gg> 8cc#X> 8a>\	24eeeeLL 24aaa/	.
.	24bbb/	.
.	24aaa/JJ	.
*	*X8va	*
!LO:TX:a:t=ms	!LO:TX:a:i:t=loco	!
24aa>LL 24ee>\	8ryy	.
24ff#>\	.	.
24ee>\JJ	.	.
8ryy	24eee 24aa/LL	.
.	24bb/	.
.	24aa/JJ	.
24aaa>LL 24eee>\	8ryy	.
24fff#>\	.	.
24eee>\JJ	.	.
*	*8va	*
4ff#> 4ccn> 4a>\	24dddd#XLL 24aaa/	.
.	24bbb/	.
.	24aaa/JJ	.
.	24aaa/LL	.
.	24bbb/	.
.	24aaa/JJ	.
*	*X8va	*
!!LO:LB:g=original
=123	=123	=123
*8va	*8va	*
8ggg> 8ccc#> 8aa>\	24eeeeLL 24aaa/	.
.	24bbb/	.
.	24aaa/JJ	.
!LO:TX:a:t=ms	!	!
24aaaa>LL 24eeee>\	8ryy	.
24ffff#>\	.	.
24eeee>\JJ	.	.
8ryy	24eeeeLL 24aaa/	.
.	24bbb/	.
.	24aaa/JJ	.
!LO:TX:a:t=ms	!	!
24cccc#>LL 24fff#>\	8ryy	.
24ggg>\	.	.
24fff#>\JJ	.	.
8ryy	24aaaLL 24eee/	.
.	24fff#/	.
.	24eee/JJ	.
!LO:TX:a:t=ms	!	!
24eee>LL 24bb>\	8ryy	.
24ccc#>\	.	.
24bb>\JJ	.	.
*X8va	*X8va	*
=124	=124	=124
8ryy	24eeeLL 24aa/	.
.	24bb/	.
.	24aa/JJ	.
!LO:TX:a:t=ms	!	!
24eee>LL 24aa>\	8ryy	.
24bb-X>\	.	.
24aa>\JJ	.	.
8ryy	24eeeLL 24aa/	.
.	24bbn/	.
.	24aa/JJ	.
!LO:TX:a:t=ms	!	!
24eee>LL 24aa>\	8ryy	.
24bb-X>\	.	.
24aa>\JJ	.	.
8r	24eeeLL 24aa/	.
.	24bbn/	.
.	24aa/JJ	.
!LO:TX:a:t=ms	!	!
24eee>LL 24aa>\	8ryy	.
24bb->\	.	.
24aa>\JJ	.	.
=125	=125	=125
!	!	!LO:DY:t=pp.
8d/L	24aaLL 24ff#\	pp
.	24bb\	.
.	24gg#X 24ee#X\	.
8qcc#\	.	.
8dd/J	24aa 24ff#\	.
.	24ddd\	.
.	24gg#JJ 24ee#\	.
8d/L	24aaLL 24ff#\	.
.	24bb\	.
.	24gg# 24ee#\	.
8qcc#\	.	.
8dd/J	24aa 24ff#\	.
.	24ddd\	.
.	24gg#JJ 24ee#\	.
24dd/LL	24aaLL 24ff#\	.
24cc#/	24bb\	.
24dd/	24aa\	.
24dd/	24aa\	.
24cc#/	24bb\	.
24dd/JJ	24aa\JJ	.
=126	=126	=126
8B/L	24ff#LL 24dd\	.
.	24gg\	.
.	24ee#X 24cc#\	.
8qa#X\	.	.
8b/J	24ff# 24dd\	.
.	24bb\	.
.	24ee#JJ 24cc#\	.
8B/L	24ff#LL 24dd\	.
.	24gg\	.
.	24ee# 24cc#\	.
8qa#\	.	.
8b/J	24ff# 24dd\	.
.	24bb\	.
.	24ee#JJ 24cc#\	.
24b/LL	24ff#LL 24dd\	.
24a#y/	24gg\	.
24b/	24ff#\	.
24b/	24ff#\	.
24a#/	24gg\	.
24b/JJ	24ff#\JJ	.
*clefF4	*	*
!!LO:LB:g=original
=127	=127	=127
8GG/	24eeLL 24dd\	.
.	24bb-X\	.
.	24gg\	.
4e 4d 4B-X 4G\	24ee\	.
.	24dd\	.
.	24b-X\JJ	.
.	24b-\LL	.
.	24gg\	.
.	24ee\	.
8e 8d 8B- 8G\	24dd\	.
.	24b-\	.
.	24g\JJ	.
8AA\L	24g\LL	.
.	24ee\	.
.	24cc#\	.
8c#J 8A 8G\	24a\	.
.	24g\	.
.	24e\JJ	.
=128	=128	=128
8DD/	24ddLL 24f#\	.
.	24d\	.
.	24f#\	.
4d 4A 4F#\	24g#X\	.
.	24b\	.
.	24g#\JJ	.
.	24a\LL	.
.	24dd\	.
.	24ff#\	.
8d 8A 8F#\	24gg#X\	.
.	24bb\	.
.	24gg#\JJ	.
*	*8va	*
4d 4A 4F#\	24aa\LL	.
.	24ddd\	.
.	24eee#X\	.
.	24fff#\	.
.	24gggn\	.
.	24ggg#X\JJ	.
*clefG2	*	*
=129	=129	=129
8dd\L	24aaaLL 24fff#\	.
.	24bbb\	.
.	24ggg#X 24eee#X\	.
8qccc#/	.	.
8ddd\J	24aaa 24fff#\	.
.	24dddd\	.
.	24ggg#JJ 24eee#\	.
8dd\L	24aaaLL 24fff#\	.
.	24bbb\	.
.	24ggg# 24eee#\	.
8qccc#/	.	.
8ddd\J	24aaa 24fff#\	.
.	24dddd\	.
.	24ggg#JJ 24eee#\	.
24ddd\LL	24aaaLL 24fff#\	.
24ccc#\	24bbb\	.
24ddd\	24aaa\	.
24ddd\	24aaa\	.
24ccc#\	24bbb\	.
24ddd\JJ	24aaa\JJ	.
=130	=130	=130
8b\L	24fff#LL 24ddd\	.
.	24ggg\	.
.	24eee#X 24ccc#\	.
8qaa#X/	.	.
8bb\J	24fff# 24ddd\	.
.	24bbb\	.
.	24eee#JJ 24ccc#\	.
8b\L	24fff#LL 24ddd\	.
.	24ggg\	.
.	24eee# 24ccc#\	.
8qaa#/	.	.
8bb\J	24fff# 24ddd\	.
.	24bbb\	.
.	24eee#JJ 24ccc#\	.
24bb\LL	24fff#LL 24ddd\	.
24aa#X\	24ggg\	.
24bb\	24fff#\	.
24bb\	24fff#\	.
24aa#\	24ggg\	.
24bb\JJ	24fff#\JJ	.
!!LO:LB:g=original
=131	=131	=131
*clefF4	*	*
16r	24eeeLL 24ddd\	.
.	24bbb-X\	.
16GG/KL	.	.
.	24ggg\	.
[8e [8d [>8B-X [8G\	24eee\	.
.	24ddd\	.
.	24bb\JJ	.
*	*X8va	*
8e]J 8d] 8B-] 8G\]	24bb-X\LL	.
.	24eee\	.
.	24ddd\	.
8e 8d 8B- 8G\	24bb-\	.
.	24gg\	.
.	24ee\JJ	.
8AA\L	24cc#\LL	.
.	24ee\	.
.	24cc#\	.
8c#J 8A 8G\	24a\	.
.	24g\	.
.	24e\JJ	.
=132	=132	=132
8DD/	24ddLL 24f#\	.
.	24d\	.
.	24f#\	.
4d 4A 4F#\	24a\	.
.	24dd\	.
.	24ff#\JJ	.
.	24aa\LL	.
.	24ff#\	.
.	24aa\	.
*	*8va	*
!LO:TX:a:t=P:problem:mixed beam	!	!
8dL 8A 8F#\	24ddd\	.
.	24fff#\	.
.	24aaa\JJ	.
8D\	8dddd\	.
*	*X8va	*
8DD/J	8r	.
=133||	=133||	=133||
!LO:TX:a:t=P:problem:mixed beam	!	!
8AA/L	8eeeL 8aa 8ee\	ff
!	!LO:TX:b:i:t=con vigore	!
8eJ 8c# 8A 8G\	16ddd#XL 16dd#X\	.
.	16fff#JJ 16ff#\	.
8e 8c# 8A 8G\	8eee 8ee\	.
4e 4c# 4A 4G\	4aa 4a\	.
8e 8c# 8A 8G\	8eee 8ee\	.
=134	=134	=134
8e 8c# 8A 8G\	8aaa 8eee 8aa\	.
16GG#X\LL	16G#X</LL	.
16BB\JJ	16B</JJ	.
16BB\LL	16B</LL	.
16AA\	16A</	.
16AA\	16A</	.
16GG#\JJ	16G#</JJ	.
8AA\L	8A</	.
8AAA\J	8rc<	.
!!LO:LB:g=original
=135	=135	=135
!LO:TX:a:t=P:problem:mixed beam	!	!
8AAL 8AAA/	8fff#L 8aa 8ff#\	.
8f#J 8d 8A 8F#\	16eee#XL 16ee#X\	.
.	16gggJJ 16gg\	.
8f# 8d 8A 8F#\	8fff# 8ff#\	.
4f# 4d 4A 4F#\	4aa 4a\	.
8f# 8d 8A 8F#\	8fff# 8ff#\	.
=136	=136	=136
8f# 8d 8A 8F#\	8aaa 8fff# 8ddd 8aa\	.
16GG#X\LL	16G#X</LL	.
16BB\JJ	16B</JJ	.
16BB\LL	16B</LL	.
16AA\	16A</	.
16AA\	16A</	.
16GG#\JJ	16G#</JJ	.
8AA\L	8A</	.
8AAA\J	8rc<	.
=137	=137	=137
16ALL 16C# 16AA\	8r	.
!	!	!LO:DY:t=p.
16G#X\	.	p
16A\	4ee 4a 4g\	.
16B#X\JJ	.	.
16c#\LL	.	.
16B#\	.	.
16c#\	4ee 4a 4g\	.
16d#X\JJ	.	.
16e\LL	.	.
16d#\	.	.
16e\	8ee 8a 8g\	.
16g#X\JJ	.	.
=138	=138	=138
8a\L	16r	.
.	16a\LL	.
8eM\J	16aa\	.
.	16ee\JJ	.
8A\L	16aa\LL	.
*	*8va	*
.	16aa\	.
8EM\J	16aaa\	.
.	16eee\JJ	.
8AA\L	8aaaa\	.
*	*X8va	*
8AAA\J	8r	.
=139	=139	=139
16ALL 16D 16AA\	8r	.
16G#X\	.	.
16A\	4ff# 4dd 4a\	.
16c#\JJ	.	.
16d\LL	.	.
16c#\	.	.
16d\	4ff# 4dd 4a\	.
16e#X\JJ	.	.
16f#\LL	.	.
16e#\	.	.
16f#\	8ff# 8dd 8a\	.
16g#X\JJ	.	.
!!LO:PB:g=original
=140	=140	=140
8a\L	16r	.
.	16a\LL	.
8f#W\J	16aa\	.
.	16ff#\JJ	.
8A\L	16aa\LL	.
*	*8va	*
.	16aa\	.
8F#W\J	16aaa\	.
.	16fff#\JJ	.
8AA\L	8aaaa\	.
*	*X8va	*
8AAA\J	8r	.
=141	=141	=141
16BBLL 16BBB\	8.bbL 8.dd#X 8.b\	f
16AA#X\	.	.
!	!LO:TX:b:i:t=animando e con fiesta	!
16BB\	.	.
16C##X\JJ	16bbJk 16b\	.
16D#X\LL	8bbL 8b\	.
16C##\	.	.
16D#\	8aa 8a\	.
16F#\JJ	.	.
16A\LL	8gg 8g\	.
16G#X\	.	.
16A\	8ff#J 8f#\	.
16cn\JJ	.	.
=142	=142	=142
!LO:TX:a:t=P:problem:mixed beam	!	!
8.EL 8.GG#X 8.EE/	8.eeL 8.e\	.
16eJk 16E\	16e\Jk	.
8eL 8E\	32e\LLL	.
.	32g#X\	.
.	32b\	.
.	32ee\	.
8dJ 8D\	40gg#X\	.
.	40bb\	.
*	*8va	*
.	40eee\	.
.	40ggg#\	.
.	40bbb\JJJ	.
*	*X8va	*
8c#L 8C#\	8eee\	.
8BJ 8BB\	8r	.
=143	=143	=143
16AALL 16AAA/	8.aaL 8.cc# 8.a\	.
16GG#X/	.	.
16AA/	.	.
16BB#X/JJ	16aaJk 16cc# 16a\	.
16C#/LL	8aaL 8a\	.
16BB#/	.	.
16C#/	8ggJ 8g\	.
16E/JJ	.	.
16G/LL	8ff#L 8f#\	.
16F#/	.	.
16G/	8eeJ 8e\	.
16B-X/JJ	.	.
=144	=144	=144
!LO:TX:a:t=P:problem:mixed beam	!	!
8.DL 8.FF# 8.DD/	8.ddL 8.d\	.
16dJk 16D\	16d\Jk	.
8dL 8D\	32d\LLL	.
.	32f#\	.
.	32a\	.
.	32dd\	.
8c# 8C#\	40ff#\	.
.	40aa\	.
*	*8va	*
.	40ddd\	.
.	40fff#\	.
.	40aaa\JJJ	.
8B 8BB\	8dddd\	.
*	*X8va	*
8AJ 8AA\	8r	.
!!LO:LB:g=original
=145	=145	=145
16GG#XLL 16GGG#X/	8.dddL 8.ffn 8.dd\	.
16FF##X/	.	.
16GG#/	.	.
16BB/JJ	16dddJk 16dd\	.
16D/LL	8dddL 8dd\	.
16C#/	.	.
16D/	8bb 8b\	.
16E#X/JJ	.	.
16G#X/LL	8gg#X 8g#X\	.
16F##X/	.	.
16G#/	8ffnJ 8fn\	.
16B/JJ	.	.
=146	=146	=146
8.dL 8.G#X 8.Fn\	8.ddL 8.b 8.d\	.
16dJk 16D\	16fn\Jk	.
8dL 8D\	32f\LLL	.
.	32g#X\	.
.	32b\	.
.	32dd\	.
8BJ 8BB\	32ffn\	.
.	32gg#X\	.
.	32bb\	.
.	32ddd\	.
*	*8va	*
8G#L 8GG#X\	32fffn\	.
.	32ggg#\	.
.	32bbb\	.
.	32dddd\JJ	.
8GG#J 8GGG#X\	8ffffn\J	.
*	*X8va	*
=147	=147	=147
!LO:TX:a:t=P:problem:mixed beam	!LO:TX:a:t=P:problem:mixed beam	!
8AAL 8AAA/	8.aL 8.f#X 8.d 8.A/	.
16aL 16A\	.	.
16f#JJ 16F#\	16aaJk 16a\	.
16eLL 16E\	8aaL 8a\	.
16d 16D\	.	.
16c# 16C#\	8dddJ 8dd\	.
16BJJ 16BB\	.	.
*	*8va	*
16G#XLL 16GG#X\	8fff#L 8ff#\	.
16A 16AA\	.	.
16F# 16FF#\	8bbbJ 8bb\	.
16DJJ 16DD\	.	.
=148	=148	=148
8.AAL 8.CC# 8.AAA/	8.aaaL 8.ggg 8.eee 8.aa\	.
!	!LO:TX:b:i:t=poco rit.	!
16AAJk 16AAA/	16aaaJk 16aa\	.
8AAL 8AAA/	8aaaL 8aa\	.
8GG#XJ 8GGG#X/	8bbb-X 8bb-X\	.
8GGnL 8GGGn/	8bbbn 8bbn\	.
8EEJ 8EEE/	8ccccnJ 8cccn\	.
*	*X8va	*
!!LO:LB:g=original
=149||	=149||	=149||
*	*8va	*
!LO:TX:a:t=P:problem:mixed beam	!	!
8DD/L	8ddddL 8ddd\	.
*	*X8va	*
8A\J	8a\J	p
!	!LO:TX:b:i:t=scherzando	!
16dLL 16F#\	16ddLL 16f#\	.
16d 16F#\	16dd 16f#\	.
16d 16F#\	16dd 16f#\	.
16dJJ 16F#\	16ddJJ 16f#\	.
8dL 8F#\	8ddL 8f#\	.
8A\J	8a\J	.
=150	=150	=150
8DL 8DD\	8dddL 8dd\	.
8A\J	8a\J	.
16dLL 16Fn\	16ddLL 16fn\	.
16d 16F\	16dd 16f\	.
16d 16F\	16dd 16f\	.
16dJJ 16F\	16ddJJ 16f\	.
8dL 8F\	8ddL 8f\	.
8A\J	8a\J	.
=151	=151	=151
8G#XL 8E\	8g#XL 8d\	.
16D#X\L	16d#X\L	.
16F#\JJ	16f#\JJ	.
8E\	8e\	.
8EL 8EE\	16dnLL 16G#X/	.
.	16b/JJ	.
8G# 8GG#X\	16ddLL 16g#\	.
.	16bb\JJ	.
*	*8va	*
8EJ 8EE\	16dddLL 16gg#\	.
.	16bbb\JJ	.
*	*X8va	*
=152	=152	=152
8c#L 8AA\	8aa 8ee 8a 8g\	.
16GG#X\L	16G#X/LL	.
16BB\JJ	16B/JJ	.
!	!LO:TX:a:t=P:problem:mixed beam	!
8AA\	8A/L	.
8AAL 8AAA/	16eeL 16a 16g\	.
.	16aa\JJ	.
*	*8va	*
8C# 8CC#/	16eeeLL 16aa 16gg\	.
.	16aaa\	.
8AAJ 8AAA/	16eeee 16aaa 16ggg\	.
.	16aaaa\JJ	.
*	*X8va	*
!!LO:LB:g=original
=153	=153	=153
*	*8va	*
!LO:TX:a:t=P:problem:mixed beam	!	!LO:DY:t=f.
8DDL 8DDD/	8ddddL 8ddd\	f
*	*X8va	*
8A\J	8a\J	.
16dLL 16F#\	16ddLL 16f#\	.
16d 16F#\	16dd 16f#\	.
16d 16F#\	16dd 16f#\	.
16dJJ 16F#\	16ddJJ 16f#\	.
8dL 8F#\	8ddL 8f#\	.
8A\J	8a\J	.
=154	=154	=154
*	*8va	*
!LO:TX:a:t=P:problem:mixed beam	!	!
8BBL 8BBB/	8ddddL 8ddd\	.
*	*X8va	*
8A\J	8a\J	.
16dLL 16Fn\	16ffnLL 16dd 16fn\	.
16d 16F\	16ff 16dd 16f\	.
16d 16F\	16ff 16dd 16f\	.
16dJJ 16F\	16ffJJ 16dd 16f\	.
8dL 8F\	8ffL 8dd 8f\	.
8A\J	8a\J	.
=155	=155	=155
8G#XL 8E\	8eeL 8g#X 8d\	.
16D#X\L	16d#X\L	.
16F#\JJ	16f#\JJ	.
8E\	8e/	.
8EL 8EE\	16dnLL 16G#X/	.
.	16b/JJ	.
8G# 8GG#X\	16ddLL 16g#\	.
.	16bb\	.
*	*8va	*
8EJ 8EE\	16ddd 16gg#\	.
.	16bbb\JJ	.
*	*X8va	*
=156	=156	=156
!	!LO:TX:a:t=P:problem:mixed beam	!
8c#L 8AA\	8aaL 8ee 8a 8g\	.
16GG#X\L	16G#X/L	.
16BB\JJ	16B/JJ	.
!	!LO:TX:a:t=P:problem:mixed beam	!
8AA/	8A/L	.
8AAL 8AAA/	16eeL 16a 16g\	.
.	16aa\JJ	.
*	*8va	*
8C# 8CC#/	16eeeLL 16aa 16gg\	.
.	16aaa\	.
8AAJ 8AAA/	16eeee 16aaa 16ggg\	.
.	16aaaa\JJ	.
=157	=157	=157
8.AAL 8.DD/	8r	.
!	!LO:TX:b:i:t=multi marcati e brillante	!
.	24aaaaLL 24ffff#\	.
.	24dddd\	.
16BB/K	.	.
.	24bbb\JJ	.
8C#/	8aaaL 8fff#\	.
*	*X8va	*
8D/	24aaaL 24fff#\	.
.	24ddd\	.
.	24aa\JJ	.
8E/	8aaL 8ff#\	.
8F#/J	24aaL 24ff#\	.
.	24dd\	.
.	24a\JJ	.
!!LO:LB:g=original
=158	=158	=158
8D\L	16r	.
.	16dd 16d\	.
8A\	16r	.
.	16aa 16a\	.
8G#X\	16r	.
.	16gg#X 16g#X\	.
8A\	16r	.
.	16aa 16a\	.
8F#\	16r	.
.	16ff# 16f#\	.
8D\J	16r	.
.	16dd 16d\	.
=159	=159	=159
8.FF#L 8.BBB/	8r	.
*	*8va	*
.	24ffff#LL 24dddd\	.
.	24dddd\	.
16GG#X/K	.	.
.	24bbb\JJ	.
8AA#X/	8fff#L 8ddd\	.
*	*X8va	*
8BB/	24fff#L 24ddd\	.
.	24bb\	.
.	24ff#\JJ	.
8C#/	8ff#L 8dd\	.
8D/J	24ff#L 24dd\	.
.	24b\	.
.	24f#\JJ	.
=160	=160	=160
8BB\L	8ryy	.
8F#\	16r	.
.	16b 16B\	.
8E#X\	16r	.
.	16ff# 16f#\	.
8F#\	16r	.
.	16ee#X 16e#X\	.
8D\	16r	.
.	16dd 16d\	.
8BB\J	16r	.
.	16b 16B\	.
=161	=161	=161
8.DDL 8.GGG/	8r	.
*	*8va	*
.	24ddddLL 24bbb-\	.
.	24ggg\	.
16EE/K	.	.
.	24ddd\JJ	.
8FF#/	8dddL 8bb-X\	.
*	*X8va	*
8GG/	24dddL 24bb-\	.
.	24gg\	.
.	24dd\JJ	.
8AA/	8ddL 8b-\	.
8BB-X/J	24ddL 24b-\	.
.	24g\	.
.	24d\JJ	.
!!LO:LB:g=original
=162	=162	=162
8GG/L	16r	.
.	16g 16G/	.
8D/	16r	.
.	16dd 16d/	.
8C#/	16r	.
.	16cc#X 16c#X/	.
8D/	16r	.
.	16dd 16d/	.
8BB-X/	16r	.
.	16b-X 16B-X/	.
8GG/J	16r	.
.	16g 16G/	.
=163	=163	=163
!LO:TX:a:t=P:problem:mixed beam	!	!
8DDL 8AAA/	16r<	.
.	16d< 16F#< 16D</	.
8AA\J	16r<	.
.	16a< 16A</	.
8GG#X\L	16r<	.
.	16g#X< 16G#X</	.
8AA\J	16r<	.
.	16a< 16A</	.
8FF#\L	16r<	.
.	16f#< 16F#</	.
8DD\J	16r<	.
.	16d< 16D</	.
=164	=164	=164
8BBB-XL 8AAA\	16r<	.
.	16B-X< 16C#< 16BB-X<	.
8CC#\J	16r<	.
.	16c#< 16C#</	.
!LO:N:acc=n#	!	!
8BBB#X\L	16r<	.
!	!LO:N:acc=n#	!
.	16B#X< 16BB#X</	.
8CC#\J	16r<	.
.	16c#< 16C#</	.
8BBB-X\	16r<	.
!	!LO:N:acc=n-	!
.	16B-X< 16BB-X</	.
8AAA\	16r<	.
.	16A< 16AA</	.
=165	=165	=165
!LO:TX:a:t=P:problem:mixed beam	!	!
8.DDL 8.DDD/	8ddL 8f# 8d\	.
*	*8va	*
!	!	!LO:DY:t=ff.
.	24bbbbL 24ffff#\	ff
.	24dddd\	.
16BJk 16BB\	.	.
.	24aaa\JJ	.
8c#L 8C#\	8aaaL 8fff#\	.
8dJ 8D\	24aaaL 24fff#\	.
.	24ddd\	.
.	24aa\JJ	.
*	*X8va	*
8eL 8E\	8aaL 8ff#\	.
8f#J 8F#\	24aaL 24ff#\	.
.	24dd\	.
.	24a\JJ	.
!!LO:LB:g=original
=166	=166	=166
8dL 8D\	16r	.
.	16ddd 16dd\	.
*clefG2	*	*
8ddJ 8d\	16r	.
*	*8va	*
.	16dddd 16ddd\	.
8bL 8B\	16r	.
.	16bbb 16bb\	.
8aJ 8A\	16r	.
.	16aaa 16aa\	.
*clefF4	*	*
8f#L 8F#\	16r	.
.	16fff# 16ff#\	.
8dJ 8D\	16r	.
.	16ddd 16dd\	.
*	*X8va	*
=167	=167	=167
8BBL 8BBB\	8ff# 8dd 8b 8d\	.
*	*8va	*
8G#X 8GG#X\	24ffff#LL 24dddd\	.
.	24bbb\	.
.	24fff#\JJ	.
8A#X 8AA#X\	8fff#L 8ddd\	.
*	*X8va	*
8B 8BB\	24fff#L 24ddd\	.
.	24bb\	.
.	24ff#\JJ	.
8c# 8C#\	8ff#L 8dd\	.
8dJ 8D\	24ff#L 24dd\	.
.	24b\	.
.	24f#\JJ	.
=168	=168	=168
8B 8BB\	16r	.
.	16bb 16b\	.
*clefG2	*	*
8bL 8B/	16r	.
*	*8va	*
.	16bbb 16bb\	.
8g 8G/	16r	.
.	16ggg 16gg\	.
8f#J 8F#/	16r	.
.	16fff# 16ff#\	.
*clefF4	*	*
8dL 8D\	16r	.
.	16ddd 16dd\	.
8BJ 8BB\	16r	.
.	16bb 16b\	.
*	*X8va	*
=169	=169	=169
8DDL 8DDD\	8ff# 8dd 8b-X 8d\	.
*	*8va	*
8EJ 8EE\	24ddddLL 24bbb-X\	.
.	24ggg\	.
.	24ddd\JJ	.
8F#L 8FF#\	8dddL 8bb-\	.
*	*X8va	*
8G 8GG\	24dddL 24bb-\	.
.	24gg\	.
.	24dd\JJ	.
8A 8AA\	8ddL 8b-\	.
8B-XJ 8BB-X\	24ddL 24b-\	.
.	24g\	.
.	24d\JJ	.
=170	=170	=170
8GL 8GG\	16r	.
.	16gg 16g\	.
8gJ 8G\	16r	.
.	16ggg 16gg\	.
8eL 8E\	16r	.
.	16eee 16ee\	.
8d 8D\	16r	.
.	16ddd 16dd\	.
8B-X 8BB-X\	16r	.
.	16bb-X 16b-X\	.
8GJ 8GG\	16r	.
.	16gg 16g\	.
!!LO:PB:g=original
=171	=171	=171
!LO:TX:a:t=P:problem:mixed beam	!	!
8DDL 8AAA/	16r	.
.	16dd 16d/	.
8dJ 8D\	16r	.
.	16ddd 16dd\	.
8BL 8BB\	16r	.
.	16bb 16b\	.
8AJ 8AA\	16r	.
.	16aa 16a\	.
8F#L 8FF#\	16r	.
.	16ff# 16f#\	.
8DJ 8DD\	16r	.
.	16dd 16d\	.
=172	=172	=172
!LO:TX:a:t=P:problem:mixed beam	!	!
8CC#L 8AAA/	16r	.
.	16b-X 16c# 16B-X\	>
8GJ 8GG\	16r	.
.	16gg 16g\	.
8EL 8EE\	16r	.
.	16ee 16e\	.
8C#J 8CC#\	16r	.
.	16cc#X 16c#X\	.
8BB-XL 8BBB-X\	16r	.
.	16b- 16B-\	.
8AAJ 8AAA\	16r	.
.	16a 16A\	]]
=173	=173	=173
!	!	!LO:DY:t=p.
8DD\L	8dd 8f# 8d\	p
16C#\L	8ryy	.
16E\JJ	.	.
8D\	8ryy	.
8ryy	8D</	.
4BB 4CC#\	24C#</LL	.
.	24D</	.
.	24C#</J	.
.	8c#<J 8E#X</	.
=174	=174	=174
!LO:TX:a:t=P:problem:mixed beam	!	!
8FF#L 8FFF#/	8ff# 8a#X 8f#\	.
16E#X\L	8ryy	.
16G\JJ	.	.
8F#\	8ryy	.
8ryy	8F#</	.
4E-X 4FFn\	24Fn</LL	.
.	24G</	.
.	24F</J	.
.	8fn<J 8A</	.
=175	=175	=175
!LO:TX:a:t=P:problem:mixed beam	!	!
8BB-XL 8BBB-X/	8bb-X 8dd 8b-X\	.
16A\L	8ryy	.
16c#\JJ	.	.
8B\	8ryy	.
8r	8B-X\	.
4G#X 4BB-\	16d\LL	.
.	16dd 16g#X\	.
.	16dd\	.
.	16dddJJ 16gg#X\	.
!!LO:LB:g=original
=176	=176	=176
!LO:TX:a:t=P:problem:mixed beam	!	!
8AAL 8AAA/	8aa 8cc# 8a\	.
16G#X\L	8ryy	.
16B\JJ	.	.
8A\	8ryy	.
8ryy	8A\	.
4Gn 4C# 4AA/	16a\LL	.
.	16aa 16ee\	.
.	16aa\	.
.	16aaaJJ 16eee\	.
=177	=177	=177
!LO:TX:a:t=P:problem:mixed beam	!	!
8DL 8DD/	8dddL 8ff# 8dd\	.
!	!LO:TX:b:i:t=animando	!
16c#\L	16cc#\L	.
16e\JJ	16ee\JJ	.
8d\L	8dd\L	.
8D\J	8d\J	.
!LO:TX:a:t=P:problem:mixed beam	!	!
8BL 8E#X 8C#\	24c#\LL	.
.	24d\	.
.	24c#\J	.
8CC#/J	8cc#J 8e#X\	.
=178	=178	=178
8F#L 8FF#\	8fff#L 8aa#X 8ff#\	.
16e#X\L	16ee#X\L	.
16g\JJ	16gg\JJ	.
8f#\L	8ff#\L	.
8F#\J	8f#\J	.
!LO:TX:a:t=P:problem:mixed beam	!	!
8e-XL 8A 8Fn\	24fn\LL	.
.	24g\	.
.	24f\J	.
8FFn/J	8ffnJ 8a\	.
=179	=179	=179
*	*8va	*
8B-XL 8BB-X\	8bbb-XL 8ddd 8bb-X\	.
*clefG2	*	*
*	*X8va	*
16a\L	16aa\L	.
16ccn\JJ	16cccn\JJ	.
!LO:TX:a:t=P:problem:mixed beam	!	!
8b\L	8bb-\L	.
8B-X/J	8b-X\J	.
4g#X 4d 4B-/	16dd\LL	.
.	16ddd 16gg#X\	.
*	*8va	*
.	16ddd\	.
.	16ddddJJ 16ggg#\	.
*clefF4	*	*
=180	=180	=180
8c#L 8Gn 8AA\	8aaaaL 8eeee 8aaa\	.
*clefG2	*	*
*	*X8va	*
16g#X\L	16gg#X\L	.
16b\JJ	16bb\JJ	.
!LO:TX:a:t=P:problem:mixed beam	!	!
8a\L	8aa\L	.
8A/J	8a\J	.
4gn 4c# 4A/	16aa\LL	.
.	16aaa 16eee\	.
*	*8va	*
.	16aaa\	.
.	16aaaaJJ 16eeee\	.
*	*X8va	*
!!LO:LB:g=original
=181	=181	=181
*clefF4	*	*
!	!LO:TX:b:i:t=con bravura	!
8d 8D\	8ddd 8dd\	.
*clefG2	*	*
8dddL 8aa 8ff#\	16r	.
.	16ddd 16aa 16ff#/	.
8ddd 8gg#X 8ee#X\	16r	.
.	16ddd 16gg#X 16ee#X/	.
8ddd 8aa 8ff#\	16r	.
.	16ddd 16aa 16ff#/	.
8ddd 8bb-X 8ggn\	16r	.
.	16ddd 16bb-X 16ggn/	.
8bb-J 8gg 8dd\	16r	.
.	16bb- 16gg 16dd/	.
=182	=182	=182
8d\L	16r	.
.	16aa 16ff# 16dd/	.
8ff# 8dd 8a\	16r	.
.	16ff# 16dd 16a/	.
8ee#X 8dd 8g#X\	16r	.
.	16ee#X 16dd 16g#X/	.
8ff#J 8dd 8a\	16r	.
.	16ff# 16dd 16a/	.
8A\L	16r	.
.	16gg 16cc# 16b-X/	.
8cc#J 8b-X 8gn\	16r	.
.	16cc# 16b- 16gn/	.
*clefF4	*	*
=183	=183	=183
8D\	16r	.
.	16ddd 16aa 16ff#/	.
*clefG2	*	*
8ddL 8a 8f#\	16r	.
.	16aa 16ff#/ 16dd	.
8dd 8g#X 8e#X\	16r	.
.	16ddd 16gg#X 16ee#X/	.
8dd 8a 8f#\	16r	.
.	16ddd 16aa 16ff#/	.
8dd 8b-X 8gn\	16r	.
.	16ddd 16bb-X 16ggn/	.
8b-J 8g 8d\	16r	.
.	16bb- 16gg 16dd/	.
*clefF4	*	*
=184	=184	=184
8D\L	16r	.
.	16aa 16ff# 16dd/	.
8f# 8d 8A\	16r	.
.	16ff# 16dd 16a/	.
8e#X 8d 8G#X\	16r	.
.	16ee#X 16dd 16g#X/	.
8f#J 8d 8A\	16r	.
.	16ff# 16dd 16a/	.
8AA\L	16r	.
.	16gg 16cc# 16b-X/	.
8c#J 8B-X 8Gn\	16r	.
.	16cc# 16b- 16gn/	.
=185	=185	=185
!LO:TX:a:t=P:problem:mixed beam	!	!
8DD/L	16r	.
.	16dd 16a 16f#/	.
8F# 8D 8AA\	16r	.
.	16f#< 16d< 16A</	.
8E#X 8D 8GG#X\	16r<	.
.	16e#X< 16d< 16G#X</	.
8F#J 8D 8AA\	16r<	.
.	16f#< 16d< 16A</	.
8AAA\L	16r<	.
.	16g< 16c#< 16B-X</	.
8C#J 8BB-X 8GGn\	16r<	.
.	16c#< 16B-< 16G#</	.
=186	=186	=186
8DD\L	16r<	.
.	16d< 16A< 16F#</	.
8FF# 8DD\	16r<	.
.	16F#< 16D< 16AA</	.
8EE#X 8DD\	16r<	.
.	16E< 16D#X< 16GG#X</	.
8FF# 8DD\	16r<	.
.	16F#< 16D#< 16AA</	.
8GGn 8AAA\	16r<	.
.	16G< 16C#< 16BB-X</	.
8AAA\J	16r<	.
.	16C#< 16BB-< 16GGn</	.
=187	=187	=187
8DDD\	16r<	.
.	16D< 16AA< 16FF#</	.
8AAAL 8FFF# 8DDD\	16r<	.
.	16AA< 16FF#< 16DD</	.
8DD 8AAA 8FFF#\	16r<	.
.	16D< 16AA< 16FF#</	.
8AA 8FF# 8DD\	16r<	.
.	16A< 16F#< 16D</	.
8D 8AA 8FF#\	16r<	.
.	16d< 16A< 16F#</	.
8AJ 8F# 8D\	16r	.
.	16a 16f# 16d\	.
=188	=188	=188
8dL 8A 8F#\	16r	.
.	16dd 16a 16f#\	.
8A 8F# 8D\	16r	.
.	16a 16f# 16d\	.
8dJ 8A 8F#\	16r	.
.	16dd 16a 16f#\	.
*clefG2	*	*
8aL 8f# 8d\	16r	.
.	16aa 16ff# 16dd\	.
8dd 8a 8f#\	16r	.
.	16ddd 16aa 16ff#\	.
8aaJ 8ff# 8dd\	16r	.
.	16aaa 16fff# 16ddd\	.
!!LO:LB:g=original
=189	=189	=189
*clefG2	*8va	*
4ddd 4aa 4ff#\	4dddd 4aaa 4fff#\	.
*clefF4	*	*
*	*X8va	*
4d 4A 4D\	4ff# 4dd 4f#\	.
*clefG2	*8va	*
4fff# 4ddd 4aa 4ff#\	4aaaa 4dddd 4aaa\	.
*clefF4	*X8va	*
=190	=190	=190
*8ba	*	*
8qDDD\	16qqD</	.
*2\right	*	*
2DDD\	2D<;/	.
*X8ba	*	*
!	!LO:TX:b:i:t=Fine.	!
4ryy	4ryy	.
==	==	==
*-	*-	*-
!!!system-decoration: {(s1,s2)}
!!!RDF**kern: > = above
!!!RDF**kern: < = below
!!!AIN: 1 forte
!!!ENC: Marta Lawrence
!!!END: 2021-05-26
!!!ENC: Berenika Jozajtis
!!!END: 2021-05-10
